core/assets/icons/rocket.svg

<svg width="24" height="24" viewBox="0 0 24 24" xmlns="http://www.w3.org/2000/svg"><g id="rocket" clip-path="url(#clip0_893_160)"><path id="Vector" d="M4.20521 15.3207L9.15779 20.2733C7.57112 20.9244 5.79187 20.9244 4.20521 20.2733C3.55413 18.6866 3.55414 16.9074 4.20521 15.3207V15.3207ZM14.5976 18.3662L14.4081 21.3842L13.0455 22.7468L1.73175 11.433L3.09435 10.0704L6.11228 9.88094L10.217 5.77619C12.6799 3.31334 16.5463 2.98807 19.7948 4.68371C21.4904 7.93216 21.1652 11.7986 18.7023 14.2615L14.5976 18.3662ZM13.0455 11.433C13.4205 11.8081 13.9292 12.0188 14.4597 12.0188C14.9901 12.0188 15.4988 11.8081 15.8739 11.433C16.249 11.058 16.4597 10.5493 16.4597 10.0188C16.4597 9.4884 16.249 8.97969 15.8739 8.60462C15.4988 8.22954 14.9901 8.01883 14.4597 8.01883C13.9292 8.01883 13.4205 8.22954 13.0455 8.60462C12.6704 8.97969 12.4597 9.4884 12.4597 10.0188C12.4597 10.5493 12.6704 11.058 13.0455 11.433Z"/></g><defs><clipPath id="clip0_893_160"><rect width="24" height="24"/></clipPath></defs></svg>

<svg xmlns="http://www.w3.org/2000/svg" width="24" height="24" fill="none"><g clip-path="url(#a)"><path fill="#191C22" d="m4.205 15.32 4.953 4.953a6.523 6.523 0 0 1-4.953 0 6.523 6.523 0 0 1 0-4.952Zm10.393 3.046-.19 3.018-1.362 1.363L1.732 11.433l1.362-1.363 3.018-.19 4.105-4.104c2.463-2.463 6.33-2.788 9.578-1.092 1.695 3.248 1.37 7.115-1.093 9.578l-4.104 4.104Zm-1.553-6.933a2 2 0 1 0 2.829-2.828 2 2 0 0 0-2.829 2.828Z"/></g><defs><clipPath id="a"><path fill="#fff" d="M0 0h24v24H0z"/></clipPath></defs></svg>
